assets/empty_address_history.svg

<svg fill="none" height="112" viewBox="0 0 97 112" width="97" xmlns="http://www.w3.org/2000/svg"><path d="m94.7183 18.2526-15.9545-15.95369c-1.4571-1.456733-3.4816-2.29891-5.5487-2.29891h-46.3561c-6.2471 0-11.3295 5.06441-11.3295 11.2836v21.998c0 1.0677.8689 1.9327 1.9415 1.9327s1.9414-.8649 1.9414-1.9327v-21.998c0-4.08971 3.3383-7.41822 7.4466-7.41822h46.3561c1.0507 0 2.0682.42108 2.7989 1.15567l15.9545 15.95365c.7421.7449 1.1546 1.7298 1.1546 2.7757v76.9716c0 4.095-3.3433 7.418-7.4465 7.418h-58.8185c-4.1083 0-7.4465-3.323-7.4465-7.418v-21.9817c0-1.0677-.8689-1.9326-1.9415-1.9326s-1.9414.8649-1.9414 1.9326v21.9817c0 6.219 5.0813 11.278 11.3295 11.278h58.8184c6.2421 0 11.3234-5.058 11.3234-11.278v-76.9716c0-2.0754-.8086-4.0298-2.2823-5.4969zm-73.1167 44.5814c.3794.3776.8741.5638 1.3636.5638.5009 0 .9957-.1862 1.375-.5638.7535-.7553.7535-1.9761 0-2.7263l-4.125-4.1064 4.125-4.1064c.7535-.7552.7535-1.9709 0-2.7323-.7587-.7501-1.9851-.7501-2.7386 0l-4.1301 4.1064-4.125-4.1064c-.7535-.7501-1.9799-.7501-2.7386 0-.75347.7615-.75347 1.9761 0 2.7323l4.1187 4.1064-4.1187 4.1064c-.75347.7501-.75347 1.971 0 2.7263.3794.3776.8803.5638 1.3636.5638.5009 0 .9956-.1862 1.375-.5638l4.125-4.1064zm-17.72533-6.8327c0-7.4563 6.1048-13.5338 13.59523-13.5338 7.4956 0 13.6004 6.0772 13.6004 13.5338 0 7.4564-6.1048 13.5339-13.6004 13.5339-7.49016 0-13.59523-6.0772-13.59523-13.5339zm31.07343 0c0-9.5919-7.8427-17.3929-17.4779-17.3929-9.63014 0-17.4718 7.8021-17.4718 17.3929 0 9.5867 7.84273 17.3929 17.4718 17.3929 9.6355 0 17.4779-7.8073 17.4779-17.3929zm38.5179-49.13168c-1.0674 0-1.9362.85977-1.9362 1.92747v14.69451c0 1.0677.8688 1.9326 1.9362 1.9326h14.1285c1.0725 0 1.9414-.8649 1.9414-1.9326 0-1.0678-.8688-1.9327-1.9414-1.9327h-12.187v-12.76205c0-1.0677-.8689-1.92723-1.9415-1.92723z" fill="#959595"/></svg>

<svg width="97" height="112" viewBox="0 0 97 112" fill="none" xmlns="http://www.w3.org/2000/svg">
<path d="M94.7183 18.2526L78.7638 2.29891C77.3067 0.842177 75.2822 0 73.2151 0H26.859C20.6119 0 15.5295 5.06441 15.5295 11.2836V33.2816C15.5295 34.3493 16.3984 35.2143 17.471 35.2143C18.5436 35.2143 19.4124 34.3494 19.4124 33.2816V11.2836C19.4124 7.19389 22.7507 3.86538 26.859 3.86538H73.2151C74.2658 3.86538 75.2833 4.28646 76.014 5.02105L91.9685 20.9747C92.7106 21.7196 93.1231 22.7045 93.1231 23.7504V100.722C93.1231 104.817 89.7798 108.14 85.6766 108.14H26.8581C22.7498 108.14 19.4116 104.817 19.4116 100.722V78.7403C19.4116 77.6726 18.5427 76.8077 17.4701 76.8077C16.3975 76.8077 15.5287 77.6726 15.5287 78.7403V100.722C15.5287 106.941 20.61 112 26.8582 112H85.6766C91.9187 112 97 106.942 97 100.722V23.7504C97 21.675 96.1914 19.7206 94.7177 18.2535L94.7183 18.2526ZM21.6016 62.834C21.981 63.2116 22.4757 63.3978 22.9652 63.3978C23.4661 63.3978 23.9609 63.2116 24.3402 62.834C25.0937 62.0787 25.0937 60.8579 24.3402 60.1077L20.2152 56.0013L24.3402 51.8949C25.0937 51.1397 25.0937 49.924 24.3402 49.1626C23.5815 48.4125 22.3551 48.4125 21.6016 49.1626L17.4715 53.269L13.3465 49.1626C12.593 48.4125 11.3666 48.4125 10.6079 49.1626C9.85443 49.9241 9.85443 51.1387 10.6079 51.8949L14.7266 56.0013L10.6079 60.1077C9.85443 60.8578 9.85443 62.0787 10.6079 62.834C10.9873 63.2116 11.4882 63.3978 11.9715 63.3978C12.4724 63.3978 12.9671 63.2116 13.3465 62.834L17.4715 58.7276L21.6016 62.834ZM3.87627 56.0013C3.87627 48.545 9.98107 42.4675 17.4715 42.4675C24.9671 42.4675 31.0719 48.5447 31.0719 56.0013C31.0719 63.4577 24.9671 69.5352 17.4715 69.5352C9.98134 69.5352 3.87627 63.458 3.87627 56.0013ZM34.9497 56.0013C34.9497 46.4094 27.107 38.6084 17.4718 38.6084C7.84166 38.6084 0 46.4105 0 56.0013C0 65.588 7.84273 73.3942 17.4718 73.3942C27.1073 73.3942 34.9497 65.5869 34.9497 56.0013ZM73.4676 6.86962C72.4002 6.86962 71.5314 7.72939 71.5314 8.79709V23.4916C71.5314 24.5593 72.4002 25.4242 73.4676 25.4242H87.5961C88.6686 25.4242 89.5375 24.5593 89.5375 23.4916C89.5375 22.4238 88.6687 21.5589 87.5961 21.5589H75.4091V8.79685C75.4091 7.72915 74.5402 6.86962 73.4676 6.86962Z" fill="#959595"/>
</svg>
